icons/ghost.svg

<svg width="24" height="24" viewBox="0 0 24 24" fill="none" xmlns="http://www.w3.org/2000/svg">
<path d="M5.01378 10.4218C5.01378 8.4534 5.74983 6.56564 7.06 5.17379C8.37017 3.78194 10.1471 3 12 3C13.8529 3 15.6298 3.78194 16.94 5.17379C18.2502 6.56564 18.9862 8.4534 18.9862 10.4218V17.8436C19.0334 18.2437 18.9587 18.6494 18.7731 19.0011C18.5874 19.3529 18.3006 19.6322 17.9547 19.7982C17.6087 19.9642 17.2218 20.008 16.8507 19.9234C16.4796 19.8388 16.1437 19.6301 15.8923 19.3279C15.7383 19.1186 15.5414 18.9493 15.3166 18.8328C15.0918 18.7164 14.845 18.6559 14.5949 18.6559C14.3448 18.6559 14.098 18.7164 13.8732 18.8328C13.6483 18.9493 13.4515 19.1186 13.2974 19.3279C13.1434 19.5373 12.9465 19.7066 12.7217 19.823C12.4969 19.9395 12.2501 20 12 20C11.7499 20 11.5031 19.9395 11.2783 19.823C11.0535 19.7066 10.8566 19.5373 10.7026 19.3279C10.5485 19.1186 10.3517 18.9493 10.1268 18.8328C9.90204 18.7164 9.65522 18.6559 9.40512 18.6559C9.15501 18.6559 8.9082 18.7164 8.68339 18.8328C8.45859 18.9493 8.2617 19.1186 8.10768 19.3279C7.85631 19.6301 7.52045 19.8388 7.14931 19.9234C6.77817 20.008 6.39127 19.9642 6.04532 19.7982C5.69936 19.6322 5.41255 19.3529 5.22692 19.0011C5.04129 18.6494 4.96659 18.2437 5.01378 17.8436V10.4218" stroke="#1E293B" stroke-width="2" stroke-linecap="round" stroke-linejoin="round"/>
<path d="M10 9H10.01" stroke="#1E293B" stroke-width="2" stroke-linecap="round" stroke-linejoin="round"/>
<path d="M14 9H14.01" stroke="#1E293B" stroke-width="2" stroke-linecap="round" stroke-linejoin="round"/>
<ellipse cx="12" cy="14" rx="0.5" ry="1" stroke="#1E293B" stroke-width="2" stroke-linecap="round" stroke-linejoin="round"/>
</svg>

<svg
  width="24"
  height="24"
  viewBox="0 0 24 24"
  xmlns="http://www.w3.org/2000/svg"
  fill="none"
  stroke="currentColor"
  stroke-width="2"
  stroke-linecap="round"
  stroke-linejoin="round"
>
  <path d="M5.014 10.422c0-1.969.736-3.856 2.046-5.248C8.37 3.782 10.147 3 12 3c1.853 0 3.63.782 4.94 2.174 1.31 1.392 2.046 3.28 2.046 5.248v7.422c.047.4-.027.805-.213 1.157a1.822 1.822 0 0 1-.818.797c-.346.166-.733.21-1.104.125a1.758 1.758 0 0 1-.959-.595 1.671 1.671 0 0 0-.575-.495 1.568 1.568 0 0 0-1.444 0 1.671 1.671 0 0 0-.576.495c-.154.21-.35.379-.575.495a1.567 1.567 0 0 1-1.444 0 1.669 1.669 0 0 1-.575-.495 1.671 1.671 0 0 0-.576-.495 1.568 1.568 0 0 0-1.444 0 1.671 1.671 0 0 0-.575.495c-.252.302-.588.51-.959.595-.37.085-.758.041-1.104-.125a1.822 1.822 0 0 1-.818-.797 1.987 1.987 0 0 1-.213-1.157v-7.422" />
  <path d="M10 9h.01" />
  <path d="M14 9h.01" />
  <ellipse cx="12" cy="14" rx=".5" ry="1" />
</svg>
